icons/glyphs/glyph-hammer.svg

<?xml version="1.0" encoding="UTF-8" standalone="no"?><svg height="22" viewBox="0 0 5.8208332 5.8208335" width="22" xmlns="http://www.w3.org/2000/svg"><sodipodi:namedview/><metadata><rdf:RDF><cc:Work><dc:format>image/svg+xml</dc:format><dc:type/><dc:title/></cc:Work></rdf:RDF></metadata><path d="m3.4728386.34701242c-.3586332.0264085-.7336229.16504692-1.0760249.33638323.684804 0 1.0272058.34213145 1.3696078.68480405l.6848039.6854724v.3430707l.342402.3424019 1.0272059-1.0278746-.342402-.3430704h-.342402l-.6848039-.68480405c-.2774774-.27697071-.6197538-.36279183-.9783868-.33638323zm.2935829 1.02252458-1.3696078 1.3696077h-.3424019l-2.05441173 2.0544119.68480401.6848038 2.05441162-2.0544118v-.3424019l1.3696077-1.3696079z" fill="#d0d0d0" fill-rule="evenodd" stroke-width=".264583"/></svg>

<?xml version="1.0" encoding="UTF-8" standalone="no"?>
<!-- Created with Inkscape (http://www.inkscape.org/) -->

<svg
   xmlns:dc="http://purl.org/dc/elements/1.1/"
   xmlns:cc="http://creativecommons.org/ns#"
   xmlns:rdf="http://www.w3.org/1999/02/22-rdf-syntax-ns#"
   xmlns:svg="http://www.w3.org/2000/svg"
   xmlns="http://www.w3.org/2000/svg"
   xmlns:sodipodi="http://sodipodi.sourceforge.net/DTD/sodipodi-0.dtd"
   xmlns:inkscape="http://www.inkscape.org/namespaces/inkscape"
   width="22"
   height="22"
   viewBox="0 0 5.8208332 5.8208335"
   version="1.1"
   id="svg8"
   inkscape:version="0.92+devel 15698 custom"
   sodipodi:docname="glyph-hammer.svg">
  <defs
     id="defs2">
    <linearGradient
       id="linearGradient4256">
      <stop
         style="stop-color:#8cbdf8"
         id="stop4258" />
      <stop
         offset="1"
         style="stop-color:#d5e8ff"
         id="stop4260" />
    </linearGradient>
  </defs>
  <sodipodi:namedview
     id="base"
     pagecolor="#002466"
     bordercolor="#ffffff"
     borderopacity="0.29019608"
     inkscape:pageopacity="1"
     inkscape:pageshadow="2"
     inkscape:zoom="13.21004"
     inkscape:cx="11"
     inkscape:cy="11"
     inkscape:document-units="px"
     inkscape:current-layer="svg8"
     inkscape:document-rotation="0"
     showgrid="false"
     units="px"
     inkscape:showpageshadow="false"
     borderlayer="true"
     inkscape:window-width="1920"
     inkscape:window-height="1054"
     inkscape:window-x="0"
     inkscape:window-y="0"
     inkscape:window-maximized="1" />
  <metadata
     id="metadata5">
    <rdf:RDF>
      <cc:Work
         rdf:about="">
        <dc:format>image/svg+xml</dc:format>
        <dc:type
           rdf:resource="http://purl.org/dc/dcmitype/StillImage" />
        <dc:title />
      </cc:Work>
    </rdf:RDF>
  </metadata>
  <path
     style="display:inline;fill:#d0d0d0;fill-rule:evenodd;stroke-width:0.26458332"
     id="path4247"
     d="m 3.4728386,0.34701242 c -0.3586332,0.0264085 -0.7336229,0.16504692 -1.0760249,0.33638323 0.684804,0 1.0272058,0.34213145 1.3696078,0.68480405 L 4.4512254,2.0536721 V 2.3967428 L 4.7936274,2.7391447 5.8208333,1.7112701 5.4784313,1.3681997 H 5.1360293 L 4.4512254,0.68339565 C 4.173748,0.40642494 3.8314716,0.32060382 3.4728386,0.34701242 Z M 3.7664215,1.369537 2.3968137,2.7391447 H 2.0544118 L 6.9999998e-8,4.7935566 0.68480408,5.4783604 2.7392157,3.4239486 V 3.0815467 L 4.1088234,1.7119388 Z"
     inkscape:connector-curvature="0"
     inkscape:label="#glyph" />
</svg>
